X: 40064
T: Throw The Beetle At Her
R: slip jig
M: 9/8
K: Bminor
|:f2B BAB g2e|f2B B2d cBA|f2B BAB g3|1 efg aed cde:|2 efg aed cBA||
|:d2f fef fef|d2f fef ecA|d2f fef fef|efg aed cBA:|

